Newaita-dark/apps/16/krusader_user.svg

<?xml version="1.0" encoding="UTF-8"?>
<svg xmlns="http://www.w3.org/2000/svg" xmlns:xlink="http://www.w3.org/1999/xlink" width="16pt" height="16pt" viewBox="0 0 16 16" version="1.1">
<defs>
<linearGradient id="linear0" gradientUnits="userSpaceOnUse" x1="254" y1="233.5" x2="254" y2="254.666672" gradientTransform="matrix(0.031253,0,0,0.031253,-0.00000190753,6.719393)">
<stop offset="0" style="stop-color:rgb(0%,0%,0%);stop-opacity:0.27451;"/>
<stop offset="1" style="stop-color:rgb(0%,0%,0%);stop-opacity:0;"/>
</linearGradient>
<radialGradient id="radial0" gradientUnits="userSpaceOnUse" cx="450.908936" cy="189.579361" fx="450.908936" fy="189.579361" r="21.166656" gradientTransform="matrix(0.0000000870852,-0.0390662,-0.0703192,-0.0000000507693,26.561465,31.797666)">
<stop offset="0" style="stop-color:rgb(0%,0%,0%);stop-opacity:0.313725;"/>
<stop offset="0.222222" style="stop-color:rgb(0%,0%,0%);stop-opacity:0.27451;"/>
<stop offset="1" style="stop-color:rgb(0%,0%,0%);stop-opacity:0;"/>
</radialGradient>
<radialGradient id="radial1" gradientUnits="userSpaceOnUse" cx="450.908936" cy="189.579361" fx="450.908936" fy="189.579361" r="21.166656" gradientTransform="matrix(-0.0000000870852,0.0390662,0.0703192,0.0000000507693,-10.60226,-3.763739)">
<stop offset="0" style="stop-color:rgb(0%,0%,0%);stop-opacity:0.313725;"/>
<stop offset="0.222222" style="stop-color:rgb(0%,0%,0%);stop-opacity:0.27451;"/>
<stop offset="1" style="stop-color:rgb(0%,0%,0%);stop-opacity:0;"/>
</radialGradient>
<radialGradient id="radial2" gradientUnits="userSpaceOnUse" cx="450.908936" cy="189.579361" fx="450.908936" fy="189.579361" r="21.166656" gradientTransform="matrix(-0.0000000870852,-0.0390662,0.0703192,-0.0000000507693,-10.60226,31.797666)">
<stop offset="0" style="stop-color:rgb(0%,0%,0%);stop-opacity:0.313725;"/>
<stop offset="0.222222" style="stop-color:rgb(0%,0%,0%);stop-opacity:0.27451;"/>
<stop offset="1" style="stop-color:rgb(0%,0%,0%);stop-opacity:0;"/>
</radialGradient>
<radialGradient id="radial3" gradientUnits="userSpaceOnUse" cx="450.908936" cy="189.579361" fx="450.908936" fy="189.579361" r="21.166656" gradientTransform="matrix(0.0000000870852,0.0390662,-0.0703192,0.0000000507693,26.561464,-3.76374)">
<stop offset="0" style="stop-color:rgb(0%,0%,0%);stop-opacity:0.313725;"/>
<stop offset="0.222222" style="stop-color:rgb(0%,0%,0%);stop-opacity:0.27451;"/>
<stop offset="1" style="stop-color:rgb(0%,0%,0%);stop-opacity:0;"/>
</radialGradient>
<linearGradient id="linear1" gradientUnits="userSpaceOnUse" x1="254" y1="233.5" x2="254" y2="-168.666672" gradientTransform="matrix(0.031253,0,0,0.031253,0,6.719392)">
<stop offset="0" style="stop-color:rgb(47.058824%,56.470588%,61.176471%);stop-opacity:1;"/>
<stop offset="1" style="stop-color:rgb(56.470588%,64.313725%,68.235294%);stop-opacity:1;"/>
</linearGradient>
<linearGradient id="linear2" gradientUnits="userSpaceOnUse" x1="148.166672" y1="-168.666672" x2="148.166672" y2="233.5" >
<stop offset="0" style="stop-color:rgb(62.352941%,65.882353%,85.490196%);stop-opacity:1;"/>
<stop offset="1" style="stop-color:rgb(47.45098%,52.54902%,79.607843%);stop-opacity:1;"/>
</linearGradient>
<linearGradient id="linear3" gradientUnits="userSpaceOnUse" x1="148.166656" y1="-168.666672" x2="148.166656" y2="233.5" gradientTransform="matrix(1,0,0,1,211.666687,0)">
<stop offset="0" style="stop-color:rgb(62.352941%,65.882353%,85.490196%);stop-opacity:1;"/>
<stop offset="1" style="stop-color:rgb(47.45098%,52.54902%,79.607843%);stop-opacity:1;"/>
</linearGradient>
<linearGradient id="linear4" gradientUnits="userSpaceOnUse" x1="254" y1="-168.666656" x2="254" y2="233.5" >
<stop offset="0" style="stop-color:rgb(62.352941%,65.882353%,85.490196%);stop-opacity:1;"/>
<stop offset="1" style="stop-color:rgb(47.45098%,52.54902%,79.607843%);stop-opacity:1;"/>
</linearGradient>
<linearGradient id="linear5" gradientUnits="userSpaceOnUse" x1="148.166672" y1="42.999996" x2="148.166672" y2="-84.000008" gradientTransform="matrix(1,0,0,1,-0.00000254313,0.0000054196)">
<stop offset="0" style="stop-color:rgb(84.313725%,80%,78.431373%);stop-opacity:1;"/>
<stop offset="1" style="stop-color:rgb(93.72549%,92.156863%,91.372549%);stop-opacity:1;"/>
</linearGradient>
<linearGradient id="linear6" gradientUnits="userSpaceOnUse" x1="148.166672" y1="-9.916669" x2="148.166672" y2="-136.916672" gradientTransform="matrix(1,0,0,1,-0.00000254313,52.916668)">
<stop offset="0" style="stop-color:rgb(84.313725%,80%,78.431373%);stop-opacity:1;"/>
<stop offset="1" style="stop-color:rgb(93.72549%,92.156863%,91.372549%);stop-opacity:1;"/>
</linearGradient>
<linearGradient id="linear7" gradientUnits="userSpaceOnUse" x1="148.166672" y1="42.999996" x2="148.166672" y2="-84" gradientTransform="matrix(1,0,0,1,211.666656,0.0000054196)">
<stop offset="0" style="stop-color:rgb(84.313725%,80%,78.431373%);stop-opacity:1;"/>
<stop offset="1" style="stop-color:rgb(93.72549%,92.156863%,91.372549%);stop-opacity:1;"/>
</linearGradient>
<linearGradient id="linear8" gradientUnits="userSpaceOnUse" x1="148.166672" y1="-9.916668" x2="148.166672" y2="-136.916672" gradientTransform="matrix(1,0,0,1,211.666656,52.916668)">
<stop offset="0" style="stop-color:rgb(84.313725%,80%,78.431373%);stop-opacity:1;"/>
<stop offset="1" style="stop-color:rgb(93.72549%,92.156863%,91.372549%);stop-opacity:1;"/>
</linearGradient>
<linearGradient id="linear9" gradientUnits="userSpaceOnUse" x1="148.166672" y1="-62.833332" x2="148.166672" y2="-189.833344" gradientTransform="matrix(1,0,0,1,-0.00000254313,105.833344)">
<stop offset="0" style="stop-color:rgb(84.313725%,80%,78.431373%);stop-opacity:1;"/>
<stop offset="1" style="stop-color:rgb(93.72549%,92.156863%,91.372549%);stop-opacity:1;"/>
</linearGradient>
<linearGradient id="linear10" gradientUnits="userSpaceOnUse" x1="148.166672" y1="-62.833332" x2="148.166672" y2="-189.833328" gradientTransform="matrix(1,0,0,1,211.666656,105.833328)">
<stop offset="0" style="stop-color:rgb(84.313725%,80%,78.431373%);stop-opacity:1;"/>
<stop offset="1" style="stop-color:rgb(93.72549%,92.156863%,91.372549%);stop-opacity:1;"/>
</linearGradient>
<linearGradient id="linear11" gradientUnits="userSpaceOnUse" x1="100.541656" y1="212.333328" x2="100.541656" y2="127.666656" >
<stop offset="0" style="stop-color:rgb(84.313725%,80%,78.431373%);stop-opacity:1;"/>
<stop offset="1" style="stop-color:rgb(93.72549%,92.156863%,91.372549%);stop-opacity:1;"/>
</linearGradient>
</defs>
<g id="surface1">
<path style=" stroke:none;fill-rule:nonzero;fill:url(#linear0);" d="M 2.5625 14.015625 L 13.394531 14.015625 L 13.394531 14.679688 L 2.5625 14.679688 Z M 2.5625 14.015625 "/>
<path style=" stroke:none;fill-rule:nonzero;fill:url(#radial0);" d="M 13.394531 14.015625 L 14.71875 14.015625 L 14.71875 13.355469 L 13.394531 13.355469 Z M 13.394531 14.015625 "/>
<path style=" stroke:none;fill-rule:nonzero;fill:url(#radial1);" d="M 2.5625 14.015625 L 1.242188 14.015625 L 1.242188 14.679688 L 2.5625 14.679688 Z M 2.5625 14.015625 "/>
<path style=" stroke:none;fill-rule:nonzero;fill:url(#radial2);" d="M 2.5625 14.015625 L 1.242188 14.015625 L 1.242188 13.355469 L 2.5625 13.355469 Z M 2.5625 14.015625 "/>
<path style=" stroke:none;fill-rule:nonzero;fill:url(#radial3);" d="M 13.394531 14.015625 L 14.71875 14.015625 L 14.71875 14.679688 L 13.394531 14.679688 Z M 13.394531 14.015625 "/>
<path style=" stroke:none;fill-rule:nonzero;fill:url(#linear1);" d="M 1.488281 1.449219 L 14.386719 1.449219 C 14.660156 1.449219 14.882812 1.671875 14.882812 1.945312 L 14.882812 13.519531 C 14.882812 13.792969 14.660156 14.015625 14.386719 14.015625 L 1.488281 14.015625 C 1.214844 14.015625 0.992188 13.792969 0.992188 13.519531 L 0.992188 1.945312 C 0.992188 1.671875 1.214844 1.449219 1.488281 1.449219 Z M 1.488281 1.449219 "/>
<path style=" stroke:none;fill-rule:nonzero;fill:rgb(100%,100%,100%);fill-opacity:0.392157;" d="M 1.488281 1.449219 C 1.214844 1.449219 0.992188 1.667969 0.992188 1.945312 L 0.992188 2.109375 C 0.992188 1.835938 1.214844 1.613281 1.488281 1.613281 L 14.386719 1.613281 C 14.664062 1.613281 14.882812 1.835938 14.882812 2.109375 L 14.882812 1.945312 C 14.882812 1.667969 14.664062 1.449219 14.386719 1.449219 Z M 1.488281 1.449219 "/>
<path style=" stroke:none;fill-rule:nonzero;fill:rgb(0%,0%,0%);fill-opacity:0.235294;" d="M 1.488281 14.015625 C 1.214844 14.015625 0.992188 13.796875 0.992188 13.519531 L 0.992188 13.355469 C 0.992188 13.628906 1.214844 13.851562 1.488281 13.851562 L 14.386719 13.851562 C 14.664062 13.851562 14.882812 13.628906 14.882812 13.355469 L 14.882812 13.519531 C 14.882812 13.796875 14.664062 14.015625 14.386719 14.015625 Z M 1.488281 14.015625 "/>
<path style=" stroke:none;fill-rule:nonzero;fill:rgb(12.941177%,12.941177%,12.941177%);fill-opacity:1;" d="M 1.488281 1.402344 C 1.1875 1.402344 0.945312 1.644531 0.945312 1.945312 L 0.945312 13.519531 C 0.945312 13.820312 1.1875 14.0625 1.488281 14.0625 L 14.386719 14.0625 C 14.6875 14.0625 14.929688 13.820312 14.929688 13.519531 L 14.929688 1.945312 C 14.929688 1.644531 14.6875 1.402344 14.386719 1.402344 Z M 1.488281 1.496094 L 14.386719 1.496094 C 14.636719 1.496094 14.835938 1.695312 14.835938 1.945312 L 14.835938 13.519531 C 14.835938 13.769531 14.636719 13.96875 14.386719 13.96875 L 1.488281 13.96875 C 1.238281 13.96875 1.039062 13.769531 1.039062 13.519531 L 1.039062 1.945312 C 1.039062 1.695312 1.238281 1.496094 1.488281 1.496094 Z M 1.488281 1.496094 "/>
<path style="fill-rule:nonzero;fill:url(#linear2);stroke-width:3;stroke-linecap:round;stroke-linejoin:round;stroke:rgb(12.941177%,12.941177%,12.941177%);stroke-opacity:1;stroke-miterlimit:4;" d="M 63.493937 -115.759477 L 232.852764 -115.759477 C 238.727203 -115.759477 243.476749 -111.009931 243.476749 -105.135492 L 243.476749 95.970304 C 243.476749 101.719755 238.727203 106.469301 232.852764 106.469301 L 63.493937 106.469301 C 57.619498 106.469301 52.869951 101.719755 52.869951 95.970304 L 52.869951 -105.135492 C 52.869951 -111.009931 57.619498 -115.759477 63.493937 -115.759477 Z M 63.493937 -115.759477 " transform="matrix(0.031253,0,0,0.031253,0,6.719392)"/>
<path style="fill-rule:nonzero;fill:url(#linear3);stroke-width:3;stroke-linecap:round;stroke-linejoin:round;stroke:rgb(12.941177%,12.941177%,12.941177%);stroke-opacity:1;stroke-miterlimit:4;" d="M 275.223717 -115.759477 L 444.457556 -115.759477 C 450.331995 -115.759477 455.081542 -111.009931 455.081542 -105.135492 L 455.081542 95.970304 C 455.081542 101.719755 450.331995 106.469301 444.457556 106.469301 L 275.223717 106.469301 C 269.349278 106.469301 264.599732 101.719755 264.599732 95.970304 L 264.599732 -105.135492 C 264.599732 -111.009931 269.349278 -115.759477 275.223717 -115.759477 Z M 275.223717 -115.759477 " transform="matrix(0.031253,0,0,0.031253,0,6.719392)"/>
<path style="fill-rule:nonzero;fill:url(#linear4);stroke-width:3;stroke-linecap:round;stroke-linejoin:round;stroke:rgb(12.941177%,12.941177%,12.941177%);stroke-opacity:1;stroke-miterlimit:4;" d="M 63.493937 127.717272 L 444.457556 127.717272 C 450.331995 127.717272 455.081542 132.466819 455.081542 138.21627 L 455.081542 201.710206 C 455.081542 207.584645 450.331995 212.334192 444.457556 212.334192 L 63.493937 212.334192 C 57.619498 212.334192 52.869951 207.584645 52.869951 201.710206 L 52.869951 138.21627 C 52.869951 132.466819 57.619498 127.717272 63.493937 127.717272 Z M 63.493937 127.717272 " transform="matrix(0.031253,0,0,0.031253,0,6.719392)"/>
<path style="fill-rule:nonzero;fill:url(#linear5);stroke-width:3;stroke-linecap:round;stroke-linejoin:round;stroke:rgb(12.941177%,12.941177%,12.941177%);stroke-opacity:1;stroke-miterlimit:4;" d="M 84.616919 -84.012509 L 211.604793 -84.012509 C 217.479232 -84.012509 222.228778 -79.262962 222.228778 -73.388523 C 222.228778 -67.514084 217.479232 -62.889526 211.604793 -62.889526 L 84.616919 -62.889526 C 78.867469 -62.889526 74.117922 -67.514084 74.117922 -73.388523 C 74.117922 -79.262962 78.867469 -84.012509 84.616919 -84.012509 Z M 84.616919 -84.012509 " transform="matrix(0.031253,0,0,0.031253,0,6.719392)"/>
<path style="fill-rule:nonzero;fill:url(#linear6);stroke-width:3;stroke-linecap:round;stroke-linejoin:round;stroke:rgb(12.941177%,12.941177%,12.941177%);stroke-opacity:1;stroke-miterlimit:4;" d="M 84.616919 -31.142558 L 211.604793 -31.142558 C 217.479232 -31.142558 222.228778 -26.393011 222.228778 -20.518572 C 222.228778 -14.644133 217.479232 -9.894587 211.604793 -9.894587 L 84.616919 -9.894587 C 78.867469 -9.894587 74.117922 -14.644133 74.117922 -20.518572 C 74.117922 -26.393011 78.867469 -31.142558 84.616919 -31.142558 Z M 84.616919 -31.142558 " transform="matrix(0.031253,0,0,0.031253,0,6.719392)"/>
<path style="fill-rule:nonzero;fill:url(#linear7);stroke-width:3;stroke-linecap:round;stroke-linejoin:round;stroke:rgb(12.941177%,12.941177%,12.941177%);stroke-opacity:1;stroke-miterlimit:4;" d="M 296.3467 -84.012509 L 423.334574 -84.012509 C 429.209013 -84.012509 433.958559 -79.262962 433.958559 -73.388523 C 433.958559 -67.514084 429.209013 -62.889526 423.334574 -62.889526 L 296.3467 -62.889526 C 290.472261 -62.889526 285.722715 -67.514084 285.722715 -73.388523 C 285.722715 -79.262962 290.472261 -84.012509 296.3467 -84.012509 Z M 296.3467 -84.012509 " transform="matrix(0.031253,0,0,0.031253,0,6.719392)"/>
<path style="fill-rule:nonzero;fill:url(#linear8);stroke-width:3;stroke-linecap:round;stroke-linejoin:round;stroke:rgb(12.941177%,12.941177%,12.941177%);stroke-opacity:1;stroke-miterlimit:4;" d="M 296.3467 -31.142558 L 423.334574 -31.142558 C 429.209013 -31.142558 433.958559 -26.393011 433.958559 -20.518572 C 433.958559 -14.644133 429.209013 -9.894587 423.334574 -9.894587 L 296.3467 -9.894587 C 290.472261 -9.894587 285.722715 -14.644133 285.722715 -20.518572 C 285.722715 -26.393011 290.472261 -31.142558 296.3467 -31.142558 Z M 296.3467 -31.142558 " transform="matrix(0.031253,0,0,0.031253,0,6.719392)"/>
<path style="fill-rule:nonzero;fill:url(#linear9);stroke-width:3;stroke-linecap:round;stroke-linejoin:round;stroke:rgb(12.941177%,12.941177%,12.941177%);stroke-opacity:1;stroke-miterlimit:4;" d="M 84.616919 21.852382 L 211.604793 21.852382 C 217.479232 21.852382 222.228778 26.601928 222.228778 32.476367 C 222.228778 38.225818 217.479232 42.975365 211.604793 42.975365 L 84.616919 42.975365 C 78.867469 42.975365 74.117922 38.225818 74.117922 32.476367 C 74.117922 26.601928 78.867469 21.852382 84.616919 21.852382 Z M 84.616919 21.852382 " transform="matrix(0.031253,0,0,0.031253,0,6.719392)"/>
<path style="fill-rule:nonzero;fill:url(#linear10);stroke-width:3;stroke-linecap:round;stroke-linejoin:round;stroke:rgb(12.941177%,12.941177%,12.941177%);stroke-opacity:1;stroke-miterlimit:4;" d="M 296.3467 21.852382 L 423.334574 21.852382 C 429.209013 21.852382 433.958559 26.601928 433.958559 32.476367 C 433.958559 38.225818 429.209013 42.975365 423.334574 42.975365 L 296.3467 42.975365 C 290.472261 42.975365 285.722715 38.225818 285.722715 32.476367 C 285.722715 26.601928 290.472261 21.852382 296.3467 21.852382 Z M 296.3467 21.852382 " transform="matrix(0.031253,0,0,0.031253,0,6.719392)"/>
<path style="fill-rule:nonzero;fill:url(#linear11);stroke-width:3;stroke-linecap:round;stroke-linejoin:round;stroke:rgb(12.941177%,12.941177%,12.941177%);stroke-opacity:1;stroke-miterlimit:4;" d="M 87.741621 192.461089 C 91.866227 196.585696 98.615583 196.585696 102.740189 192.461089 L 117.738757 177.462522 C 121.863363 173.337916 121.863363 166.713548 117.738757 162.463954 L 102.740189 147.590374 C 98.615583 143.465768 91.866227 143.34078 87.741621 147.590374 C 83.617015 151.71498 83.617015 158.339348 87.741621 162.463954 L 95.240905 169.963238 L 87.741621 177.462522 C 83.617015 181.587128 83.617015 188.336483 87.741621 192.461089 Z M 87.741621 192.461089 " transform="matrix(0.031253,0,0,0.031253,0,6.719392)"/>
</g>
</svg>

<svg xmlns="http://www.w3.org/2000/svg" width="16pt" height="16pt" viewBox="0 0 16 16"><defs><linearGradient id="a" gradientUnits="userSpaceOnUse" x1="254" y1="233.5" x2="254" y2="254.667" gradientTransform="matrix(.03125 0 0 .03125 0 6.72)"><stop offset="0" stop-opacity=".275"/><stop offset="1" stop-opacity="0"/></linearGradient><radialGradient id="b" gradientUnits="userSpaceOnUse" cx="450.909" cy="189.579" fx="450.909" fy="189.579" r="21.167" gradientTransform="matrix(0 -.03907 -.07032 0 26.561 31.798)"><stop offset="0" stop-opacity=".314"/><stop offset=".222" stop-opacity=".275"/><stop offset="1" stop-opacity="0"/></radialGradient><radialGradient id="c" gradientUnits="userSpaceOnUse" cx="450.909" cy="189.579" fx="450.909" fy="189.579" r="21.167" gradientTransform="matrix(0 .03907 .07032 0 -10.602 -3.764)"><stop offset="0" stop-opacity=".314"/><stop offset=".222" stop-opacity=".275"/><stop offset="1" stop-opacity="0"/></radialGradient><radialGradient id="d" gradientUnits="userSpaceOnUse" cx="450.909" cy="189.579" fx="450.909" fy="189.579" r="21.167" gradientTransform="matrix(0 -.03907 .07032 0 -10.602 31.798)"><stop offset="0" stop-opacity=".314"/><stop offset=".222" stop-opacity=".275"/><stop offset="1" stop-opacity="0"/></radialGradient><radialGradient id="e" gradientUnits="userSpaceOnUse" cx="450.909" cy="189.579" fx="450.909" fy="189.579" r="21.167" gradientTransform="matrix(0 .03907 -.07032 0 26.561 -3.764)"><stop offset="0" stop-opacity=".314"/><stop offset=".222" stop-opacity=".275"/><stop offset="1" stop-opacity="0"/></radialGradient><linearGradient id="f" gradientUnits="userSpaceOnUse" x1="254" y1="233.5" x2="254" y2="-168.667" gradientTransform="matrix(.03125 0 0 .03125 0 6.72)"><stop offset="0" stop-color="#78909c"/><stop offset="1" stop-color="#90a4ae"/></linearGradient><linearGradient id="g" gradientUnits="userSpaceOnUse" x1="148.167" y1="-168.667" x2="148.167" y2="233.5"><stop offset="0" stop-color="#9fa8da"/><stop offset="1" stop-color="#7986cb"/></linearGradient><linearGradient id="h" gradientUnits="userSpaceOnUse" x1="148.167" y1="-168.667" x2="148.167" y2="233.5" gradientTransform="translate(211.667)"><stop offset="0" stop-color="#9fa8da"/><stop offset="1" stop-color="#7986cb"/></linearGradient><linearGradient id="i" gradientUnits="userSpaceOnUse" x1="254" y1="-168.667" x2="254" y2="233.5"><stop offset="0" stop-color="#9fa8da"/><stop offset="1" stop-color="#7986cb"/></linearGradient><linearGradient id="j" gradientUnits="userSpaceOnUse" x1="148.167" y1="43" x2="148.167" y2="-84"><stop offset="0" stop-color="#d7ccc8"/><stop offset="1" stop-color="#efebe9"/></linearGradient><linearGradient id="k" gradientUnits="userSpaceOnUse" x1="148.167" y1="-9.917" x2="148.167" y2="-136.917" gradientTransform="translate(0 52.917)"><stop offset="0" stop-color="#d7ccc8"/><stop offset="1" stop-color="#efebe9"/></linearGradient><linearGradient id="l" gradientUnits="userSpaceOnUse" x1="148.167" y1="43" x2="148.167" y2="-84" gradientTransform="translate(211.667)"><stop offset="0" stop-color="#d7ccc8"/><stop offset="1" stop-color="#efebe9"/></linearGradient><linearGradient id="m" gradientUnits="userSpaceOnUse" x1="148.167" y1="-9.917" x2="148.167" y2="-136.917" gradientTransform="translate(211.667 52.917)"><stop offset="0" stop-color="#d7ccc8"/><stop offset="1" stop-color="#efebe9"/></linearGradient><linearGradient id="n" gradientUnits="userSpaceOnUse" x1="148.167" y1="-62.833" x2="148.167" y2="-189.833" gradientTransform="translate(0 105.833)"><stop offset="0" stop-color="#d7ccc8"/><stop offset="1" stop-color="#efebe9"/></linearGradient><linearGradient id="o" gradientUnits="userSpaceOnUse" x1="148.167" y1="-62.833" x2="148.167" y2="-189.833" gradientTransform="translate(211.667 105.833)"><stop offset="0" stop-color="#d7ccc8"/><stop offset="1" stop-color="#efebe9"/></linearGradient><linearGradient id="p" gradientUnits="userSpaceOnUse" x1="100.542" y1="212.333" x2="100.542" y2="127.667"><stop offset="0" stop-color="#d7ccc8"/><stop offset="1" stop-color="#efebe9"/></linearGradient></defs><path d="M2.563 14.016h10.832v.664H2.563zm0 0" fill="url(#a)"/><path d="M13.395 14.016h1.324v-.66h-1.324zm0 0" fill="url(#b)"/><path d="M2.563 14.016h-1.32v.664h1.32zm0 0" fill="url(#c)"/><path d="M2.563 14.016h-1.32v-.66h1.32zm0 0" fill="url(#d)"/><path d="M13.395 14.016h1.324v.664h-1.324zm0 0" fill="url(#e)"/><path d="M1.488 1.45h12.899c.273 0 .496.222.496.495V13.52a.497.497 0 0 1-.496.496H1.488a.497.497 0 0 1-.496-.496V1.945c0-.273.223-.496.496-.496zm0 0" fill="url(#f)"/><path d="M1.488 1.45a.494.494 0 0 0-.496.495v.164c0-.273.223-.496.496-.496h12.899c.277 0 .496.223.496.496v-.164a.492.492 0 0 0-.496-.496zm0 0" fill="#fff" fill-opacity=".392"/><path d="M1.488 14.016a.494.494 0 0 1-.496-.496v-.165c0 .274.223.497.496.497h12.899a.494.494 0 0 0 .496-.497v.165a.492.492 0 0 1-.496.496zm0 0" fill-opacity=".235"/><path d="M1.488 1.402c-.3 0-.543.243-.543.543V13.52c0 .3.243.543.543.543h12.899c.3 0 .543-.243.543-.543V1.945c0-.3-.242-.543-.543-.543zm0 .094h12.899c.25 0 .449.2.449.45V13.52c0 .25-.2.449-.45.449H1.489c-.25 0-.449-.2-.449-.45V1.946c0-.25.2-.449.45-.449zm0 0" fill="#212121"/><path d="M63.494-115.76h169.359c5.874 0 10.624 4.75 10.624 10.625V95.97c0 5.75-4.75 10.5-10.624 10.5H63.493c-5.874 0-10.623-4.75-10.623-10.5v-201.105c0-5.875 4.75-10.624 10.624-10.624zm0 0" transform="matrix(.03125 0 0 .03125 0 6.72)" fill="url(#g)" stroke-width="3" stroke-linecap="round" stroke-linejoin="round" stroke="#212121"/><path d="M275.224-115.76h169.234c5.874 0 10.624 4.75 10.624 10.625V95.97c0 5.75-4.75 10.5-10.624 10.5H275.224c-5.875 0-10.624-4.75-10.624-10.5v-201.105c0-5.875 4.75-10.624 10.624-10.624zm0 0" transform="matrix(.03125 0 0 .03125 0 6.72)" fill="url(#h)" stroke-width="3" stroke-linecap="round" stroke-linejoin="round" stroke="#212121"/><path d="M63.494 127.717h380.964c5.874 0 10.624 4.75 10.624 10.5v63.493c0 5.875-4.75 10.624-10.624 10.624H63.494A10.615 10.615 0 0 1 52.87 201.71v-63.494c0-5.75 4.75-10.499 10.624-10.499zm0 0" transform="matrix(.03125 0 0 .03125 0 6.72)" fill="url(#i)" stroke-width="3" stroke-linecap="round" stroke-linejoin="round" stroke="#212121"/><path d="M84.617-84.013h126.988c5.874 0 10.624 4.75 10.624 10.624 0 5.875-4.75 10.5-10.624 10.5H84.617c-5.75 0-10.5-4.625-10.5-10.5 0-5.874 4.75-10.624 10.5-10.624zm0 0" transform="matrix(.03125 0 0 .03125 0 6.72)" fill="url(#j)" stroke-width="3" stroke-linecap="round" stroke-linejoin="round" stroke="#212121"/><path d="M84.617-31.143h126.988c5.874 0 10.624 4.75 10.624 10.624 0 5.875-4.75 10.624-10.624 10.624H84.617c-5.75 0-10.5-4.75-10.5-10.624 0-5.874 4.75-10.624 10.5-10.624zm0 0" transform="matrix(.03125 0 0 .03125 0 6.72)" fill="url(#k)" stroke-width="3" stroke-linecap="round" stroke-linejoin="round" stroke="#212121"/><path d="M296.347-84.013h126.988c5.874 0 10.624 4.75 10.624 10.624 0 5.875-4.75 10.5-10.624 10.5H296.347c-5.875 0-10.624-4.625-10.624-10.5 0-5.874 4.75-10.624 10.624-10.624zm0 0" transform="matrix(.03125 0 0 .03125 0 6.72)" fill="url(#l)" stroke-width="3" stroke-linecap="round" stroke-linejoin="round" stroke="#212121"/><path d="M296.347-31.143h126.988c5.874 0 10.624 4.75 10.624 10.624 0 5.875-4.75 10.624-10.624 10.624H296.347a10.615 10.615 0 0 1-10.624-10.624c0-5.874 4.75-10.624 10.624-10.624zm0 0" transform="matrix(.03125 0 0 .03125 0 6.72)" fill="url(#m)" stroke-width="3" stroke-linecap="round" stroke-linejoin="round" stroke="#212121"/><path d="M84.617 21.852h126.988c5.874 0 10.624 4.75 10.624 10.624 0 5.75-4.75 10.5-10.624 10.5H84.617c-5.75 0-10.5-4.75-10.5-10.5 0-5.874 4.75-10.624 10.5-10.624zm0 0" transform="matrix(.03125 0 0 .03125 0 6.72)" fill="url(#n)" stroke-width="3" stroke-linecap="round" stroke-linejoin="round" stroke="#212121"/><path d="M296.347 21.852h126.988c5.874 0 10.624 4.75 10.624 10.624 0 5.75-4.75 10.5-10.624 10.5H296.347c-5.875 0-10.624-4.75-10.624-10.5 0-5.874 4.75-10.624 10.624-10.624zm0 0" transform="matrix(.03125 0 0 .03125 0 6.72)" fill="url(#o)" stroke-width="3" stroke-linecap="round" stroke-linejoin="round" stroke="#212121"/><path d="M87.742 192.461c4.124 4.125 10.874 4.125 14.998 0l14.999-14.998c4.124-4.125 4.124-10.75 0-14.999L102.74 147.59c-4.124-4.124-10.874-4.25-14.998 0a10.486 10.486 0 0 0 0 14.874l7.499 7.5-7.5 7.499c-4.124 4.124-4.124 10.873 0 14.998zm0 0" transform="matrix(.03125 0 0 .03125 0 6.72)" fill="url(#p)" stroke-width="3" stroke-linecap="round" stroke-linejoin="round" stroke="#212121"/></svg>
